lib/flags/m/JO.svg

<svg xmlns="http://www.w3.org/2000/svg" fill="none" viewBox="0 0 20 15"><mask id="JO_svg__a" width="20" height="15" x="0" y="0" mask-type="alpha" maskUnits="userSpaceOnUse"><path fill="#fff" d="M0 0H20V15H0z"/></mask><g mask="url(#JO_svg__a)"><path fill="#F7FCFF" fill-rule="evenodd" d="M0 0V15H20V0H0Z" clip-rule="evenodd"/><mask id="JO_svg__b" width="20" height="15" x="0" y="0" mask-type="alpha" maskUnits="userSpaceOnUse"><path fill="#fff" fill-rule="evenodd" d="M0 0V15H20V0H0Z" clip-rule="evenodd"/></mask><g fill-rule="evenodd" clip-rule="evenodd" mask="url(#JO_svg__b)"><path fill="#272727" d="M0 0V5H20V0H0Z"/><path fill="#093" d="M0 10V15H20V10H0Z"/></g><path fill="#E31D1C" fill-rule="evenodd" d="M0 0V15L12.5 7.5L0 0Z" clip-rule="evenodd"/><mask id="JO_svg__c" width="13" height="15" x="0" y="0" mask-type="alpha" maskUnits="userSpaceOnUse"><path fill="#fff" fill-rule="evenodd" d="M0 0V15L12.5 7.5L0 0Z" clip-rule="evenodd"/></mask><g mask="url(#JO_svg__c)"><path fill="#F7FCFF" fill-rule="evenodd" d="M5.62612 8.66917L4.45695 9.375L4.72363 7.99765L3.75 6.96684L5.06835 6.9111L5.62612 5.625L6.18389 6.9111H7.5L6.52861 7.99765L6.82106 9.375L5.62612 8.66917Z" clip-rule="evenodd"/></g></g></svg>

<svg xmlns="http://www.w3.org/2000/svg" fill="none" viewBox="0 0 20 15"><mask id="JO_svg__a" width="20" height="15" x="0" y="0" maskUnits="userSpaceOnUse"><path fill="#fff" d="M0 0h20v15H0z"/></mask><g mask="url(#JO_svg__a)"><path fill="#F7FCFF" fill-rule="evenodd" d="M0 0v15h20V0H0z" clip-rule="evenodd"/><mask id="JO_svg__b" width="20" height="15" x="0" y="0" maskUnits="userSpaceOnUse"><path fill="#fff" fill-rule="evenodd" d="M0 0v15h20V0H0z" clip-rule="evenodd"/></mask><g fill-rule="evenodd" clip-rule="evenodd" mask="url(#JO_svg__b)"><path fill="#272727" d="M0 0v5h20V0H0z"/><path fill="#093" d="M0 10v5h20v-5H0z"/></g><path fill="#E31D1C" fill-rule="evenodd" d="M0 0v15l12.5-7.5L0 0z" clip-rule="evenodd"/><mask id="JO_svg__c" width="13" height="15" x="0" y="0" maskUnits="userSpaceOnUse"><path fill="#fff" fill-rule="evenodd" d="M0 0v15l12.5-7.5L0 0z" clip-rule="evenodd"/></mask><g mask="url(#JO_svg__c)"><path fill="#F7FCFF" fill-rule="evenodd" d="M5.626 8.67l-1.17.705.268-1.377-.974-1.031 1.318-.056.558-1.286.558 1.286H7.5l-.971 1.087.292 1.377-1.195-.706z" clip-rule="evenodd"/></g></g></svg>
